!!!COM: Bach, Johann Sebastian
!!!CDT: 1685/3//-1750/7/28/
!!!OTL@@DE: O Welt, sieh hier dein Leben
!!!AGN: 4-Part Chorale
!!!SCT: BH 366
!!!SCT: BWV 394
**harm	**root	**kern	**kern	**kern	**kern
!	!	!bass	!tenor	!alto	!soprno
*	*Iorgan	*Iorgan	*Iorgan	*Iorgan	*Iorgan
*M4/4	*M4/4	*M4/4	*M4/4	*M4/4	*M4/4
*met(c)	*met(c)	*met(c)	*met(c)	*met(c)	*met(c)
*MM60	*MM60	*MM60	*MM60	*MM60	*MM60
*k[b-e-]	*k[b-e-]	*k[b-e-]	*k[b-e-]	*k[b-e-]	*k[b-e-]
*B-:	*B-:	*B-:	*B-:	*B-:	*B-:
I	4AA	4B-	4f	8b-	8dd
.	.	.	.	8a	8cc
=1	=1	=1	=1	=1	=1
IV	4DD	8e-	8g	4.g	4b-
.	.	8d	8f	.	.
ii	4BB	4c	4e-	.	4cc
.	.	.	.	8a	.
I	4AA	4B-	4f	4.b-	8dd
.	.	.	.	.	8ee-
Ib	4AA	4D	4B-	.	4ff
.	.	.	.	8f	.
=2	=2	=2	=2	=2	=2
ii7	4BB	4C	4B-	4g	2ee-
V7	4EE	4F	4A	4f	.
I;	4AA;	4BB-;	4B-;	4f;	4dd;
I	4AA	8B-	4f	4b-	8dd
.	.	8c	.	.	8ee-
=3	=3	=3	=3	=3	=3
Ib	4AA	4d	4f	8b-	4ff
.	.	.	.	8a	.
Ib	4AA	8D	4f	8b-	4ff
.	.	8E-	.	8cc	.
V	4EE	4F	8f	8a	4cc
.	.	.	8e-	8g	.
I	4AA	8B-	4d	4f	8dd
.	.	8A	.	.	8cc
=4	=4	=4	=4	=4	=4
vi7	4FF#	4G	4d	4f	2b-
V7/V	4BB	4C	4c	4e	.
V;	4EE;	4F;	4c;	4f;	4a;
V	4EE	8F	4A	4c	4f
.	.	8E-	.	.	.
=5	=5	=5	=5	=5	=5
Ib	8AA	8D	4B-	8f	4b-
IV	8DD	8E-	.	8g	.
viioc	4GG#	8D	4e-	4a	4cc
.	.	8C	.	.	.
I	8AA	4BB-	8f	8b-	8dd
viioc	8GG#	.	8e-	8a	8cc
I	8AA	8B-	8f	8b-	8dd
iib	8BB	8E-	8g	8cc	8ee-
=6	=6	=6	=6	=6	=6
V;	2EE;	2F;	2f;	2a;	2cc;
r	4r	4r	4r	4r	4r
V/vi	4CC#	4D	4f#	4a	8dd
.	.	.	.	.	8cc
!!linebreak: 2
=7	=7	=7	=7	=7	=7
vi	4FF#	4G	8d	4g	4b-
.	.	.	8e-	.	.
Vb	4EE	4A	8d	4f	4cc
.	.	.	8c	.	.
I	4AA	8B-	4B-	8f	8dd
.	.	8c	.	8e-	8ee-
I	4AA	8B-	4B-	4d	4ff
.	.	8A	.	.	.
=8	=8	=8	=8	=8	=8
IVb	4DD	4G	8B-	8d	2ee-
.	.	.	4g	16c	.
.	.	.	.	16B-	.
V7b	4EE	4A	.	4c	.
.	.	.	8f	.	.
I;	4AA;	4B-;	4f;	4B-;	4dd;
vi	4FF#	4G	4g	4b-	8dd
.	.	.	.	.	8ee-
=9	=9	=9	=9	=9	=9
Vb	8EE	8A	4f	8cc	4ff
I	8AA	8B-	.	8dd	.
Vb	4EE	8A	4c	8cc	4ff
.	.	8G	.	8b-	.
V	4EE	8F	8c	8a	4cc
.	.	8G	8B-	8g	.
iiib	8CC#	8F	8A	4a	8dd
v7c/iii	8GG#	8E	8G	.	8cc
=10	=10	=10	=10	=10	=10
iii7b	8CC#	4D	8F	8a	2b-
vic	8FF#	.	4d	16g	.
.	.	.	.	16f	.
viio7/V	4DD#	4E	.	4g	.
.	.	.	8c	.	.
V;	4EE;	4F;	4c;	4f;	4a;
iii	4CC#	4D	8d	8f	4f
.	.	.	8c	8e-	.
=11	=11	=11	=11	=11	=11
vi	4FF#	4G	4B-	8d	4b-
.	.	.	.	8e-	.
iii7b	8CC#	8F	8A	8d	4cc
iib	8BB	8E-	8G	8c	.
Ib	4AA	8D	4.F	4B-	8dd
.	.	8C	.	.	8ee-
Ib	8AA	8D	.	4b-	8ff
IV	8DD	8E-	8G	.	8ee-
=12	=12	=12	=12	=12	=12
iiib	8CC#	8F	8A	8f	4dd
IV7	8DD	8E-	4B-	8g	.
V	4EE	4F	.	8c	4cc
.	.	.	8A	8f	.
I;	4AA;	4BB-;	4F;	4d;	4b-;
==	==	==	==	==	==
*-	*-	*-	*-	*-	*-
!!chor2scor: -l 2 -o %b.pmx
!!!YEC: Copyright 1994, David Huron
!!!YEC: Changes/Additions 2001 by Craig Stuart Sapp
!!!YEN: United States of America
!!!SMA: 371 Bach Chorales, edited by Ludwig Erk, C.F. Peters
!!!PDT: 1850, 1865
!!!ONB: Harmony and Root analysis done manually
